launcher/android/assets/skins/day/svg/cut.svg

<svg enable-background="new 0 0 257.00 257.00" height="257" viewBox="0 0 257 257" width="257" xmlns="http://www.w3.org/2000/svg"><path d="m127.476 110.514c-14.574-30.6818-29.1479-61.3637-36.8183-76.7047-7.6705-15.3409-8.4376-15.3409-9.3324-14.8296-.8949.5114-1.9177 1.5342-2.8125 2.3012-.8949.7671-1.662 1.2784-2.5569 2.1734-.8949.8948-1.9176 2.1733-2.8125 3.3237-.8949 1.1506-1.6619 2.1734-1.9176 3.8352-.2557 1.6619 0 3.9632.2557 6.2644l39.1195 107.3864-1.534 17.642-5.989 10.377c-7.5125-11.12-20.2347-18.431-34.6647-18.431-23.088 0-41.8041 18.717-41.8041 41.804 0 23.088 18.7164 41.805 41.8041 41.805 20.2018 0 37.8217-12.52 41.7197-31.57l15.809-41.684 3.115.681 14.743 41.337c3.898 19.049 22.584 31.917 42.786 31.917 23.088 0 41.804-18.717 41.804-41.804 0-23.089-18.716-41.805-41.804-41.805-14.43 0-27.152 7.311-34.665 18.431l-5.988-10.377-1.535-17.642 39.12-107.3867c.256-2.301.511-4.6021.256-6.2642-.256-1.6618-1.023-2.6845-1.918-3.8352-.895-1.1506-1.918-2.4289-2.813-3.324-.894-.8947-1.662-1.4062-2.556-2.173-.895-.7671-1.918-1.7898-2.813-2.3013s-1.662-.5115-9.332 14.8296c-7.671 15.341-22.245 46.0229-36.819 76.7048m-58.3427 63.751c-11.4378 0-20.7103 9.272-20.7103 20.71s9.2723 20.711 20.7103 20.711 20.7103-9.273 20.7103-20.711-9.2725-20.71-20.7103-20.71zm117.9167.169c-11.437 0-20.71 9.273-20.71 20.71 0 11.438 9.272 20.711 20.71 20.711s20.711-9.273 20.711-20.711c0-11.437-9.273-20.71-20.711-20.71z" style="fill:#dcb877;fill-rule:evenodd;stroke-width:3;stroke-linecap:round;stroke-linejoin:round;stroke:#b59663"/></svg>

﻿<?xml version="1.0" encoding="utf-8"?>
<!DOCTYPE svg PUBLIC "-//W3C//DTD SVG 1.1//EN" "http://www.w3.org/Graphics/SVG/1.1/DTD/svg11.dtd">
<svg xmlns="http://www.w3.org/2000/svg" xmlns:xlink="http://www.w3.org/1999/xlink" version="1.1" baseProfile="full" width="257" height="257" viewBox="0 0 257.00 257.00" enable-background="new 0 0 257.00 257.00" xml:space="preserve">
	<path fill="#DCB877" fill-opacity="1" fill-rule="evenodd" stroke-width="3" stroke-linecap="round" stroke-linejoin="round" stroke="#B59663" stroke-opacity="1" d="M 127.476,110.514C 112.902,79.8322 98.3281,49.1503 90.6577,33.8093C 82.9872,18.4684 82.2201,18.4684 81.3253,18.9797C 80.4304,19.4911 79.4076,20.5139 78.5128,21.2809C 77.6179,22.048 76.8508,22.5593 75.9559,23.4543C 75.061,24.3491 74.0383,25.6276 73.1434,26.778C 72.2485,27.9286 71.4815,28.9514 71.2258,30.6132C 70.9701,32.2751 71.2258,34.5764 71.4815,36.8776L 110.601,144.264L 109.067,161.906L 103.078,172.283C 95.5655,161.163 82.8433,153.852 68.4133,153.852C 45.3253,153.852 26.6092,172.569 26.6092,195.656C 26.6092,218.744 45.3256,237.461 68.4133,237.461C 88.6151,237.461 106.235,224.941 110.133,205.891L 125.942,164.207L 129.057,164.888L 143.8,206.225C 147.698,225.274 166.384,238.142 186.586,238.142C 209.674,238.142 228.39,219.425 228.39,196.338C 228.39,173.249 209.674,154.533 186.586,154.533C 172.156,154.533 159.434,161.844 151.921,172.964L 145.933,162.587L 144.398,144.945L 183.518,37.5583C 183.774,35.2573 184.029,32.9562 183.774,31.2941C 183.518,29.6323 182.751,28.6096 181.856,27.4589C 180.961,26.3083 179.938,25.03 179.043,24.1349C 178.149,23.2402 177.381,22.7287 176.487,21.9619C 175.592,21.1948 174.569,20.1721 173.674,19.6606C 172.779,19.1491 172.012,19.1491 164.342,34.4902C 156.671,49.8312 142.097,80.5131 127.523,111.195M 69.1803,174.946C 57.7425,174.946 48.47,184.218 48.47,195.656C 48.47,207.094 57.7423,216.367 69.1803,216.367C 80.6183,216.367 89.8906,207.094 89.8906,195.656C 89.8906,184.218 80.6181,174.946 69.1803,174.946 Z M 187.097,175.115C 175.66,175.115 166.387,184.388 166.387,195.825C 166.387,207.263 175.659,216.536 187.097,216.536C 198.535,216.536 207.808,207.263 207.808,195.825C 207.808,184.388 198.535,175.115 187.097,175.115 Z "/>
</svg>
